X:1
T:Camp Meeting -- Hornpipe
T:Camp Meeting -- Hornpipe
T:Harry Carleton
C:Harry Carleton
L:1/8
M:2/4
K:C
V:1 treble 
V:1
 (3(uG/A/B/) | v[Ec]2 u[Gd]2 |"^0" [ce][Ec] z ud/ve/ | f/e/d/c/ d/c/B/A/ | G/A/B/A/ G/F/E/D/ | %5
 v[Ec]2 u[Gd]2 |"^0" [ce][Ec] z ud/ve/ | f/e/d/c/ B/g/f/d/ | c"^4"e c :: (ue/f/) | %10
 vg/^f/g/a/ g/=f/e/d/ | c/d/"^4"e/c/ G(f/g/) | a/^g/a/_b/ a/=g/f/e/ | f/g/a/f/ d(f/e/) | %14
 d/^c/d/e/ f/g/b/a/ | c/B/c/d/ e/f/a/g/ | ^f/g/b/a/ g/=f/e/d/ | c"^4"e c :| %18

